_includes/icons/ios-money-box.svg

<svg fill="#666" height="50" viewBox="0 0 50 50" width="50" xmlns="http://www.w3.org/2000/svg"><path d="m18.5 2.5625c-4.132812 0-7.5 3.371094-7.5 7.5 0 1.160156.273438 2.273438.75 3.25l1.78125-.875c-.347656-.710937-.53125-1.519531-.53125-2.375 0-3.050781 2.445313-5.5 5.5-5.5 3.046875 0 5.5 2.449219 5.5 5.5h2c0-4.132812-3.371094-7.5-7.5-7.5zm18.6875 4.375c-.042969.007813-.085937.019531-.125.03125-.019531.007813-.042969.019531-.0625.03125-2.535156.636719-5.4375 2.15625-7.28125 5.59375-1.753906-.375-3.546875-.65625-5.46875-.65625-5.6875 0-10.097656 1.769531-13.5625 4.46875-1.769531 1.375-3.15625 3.265625-4.03125 5.59375-.308594-.105469-.71875-.277344-1.1875-.59375-.785156-.535156-1.46875-1.269531-1.46875-2.625 0-1.078125.503906-1.980469 1.34375-2.34375.46875-.171875.738281-.65625.636719-1.144531-.101563-.488281-.546875-.824219-1.042969-.792969-.128906.007813-.257812.039063-.375.09375-1.660156.714844-2.5625 2.4375-2.5625 4.1875 0 2.09375 1.21875 3.515625 2.34375 4.28125.695313.472656 1.289063.707031 1.71875.84375-.339844 1.480469-.480469 3.121094-.40625 4.875.1875 4.453125 3.203125 7.71875 5.46875 9.53125h.03125c.203125.160156.265625.253906.28125.28125s.0625-.035156-.03125.25c-.300781.921875-.875 2.3125-.875 2.3125v.03125c-.53125 1.394531.171875 2.96875 1.5625 3.5v.03125l3.21875 1.1875c1.394531.53125 3-.167969 3.53125-1.5625 0 0 .398438-1.125.75-2.0625.054688-.140625.09375-.175781.125-.21875.039063.003906.042969.015625.125.03125.636719.117188 2.050781.53125 4.40625.53125 2.402344 0 3.800781-.242187 4.4375-.28125.125-.007812.175781 0 .21875 0 .015625.027344.011719.050781.03125.09375.003906.015625-.003906.015625 0 .03125.320313.957031.707031 1.847656.71875 1.875.003906.015625.023438.015625.03125.03125.542969 1.367188 2.089844 2.054688 3.46875 1.53125l3.21875-1.1875c0-.011719 0-.019531 0-.03125 1.394531-.527344 2.097656-2.105469 1.5625-3.5l-.5-1.34375c-.027344-.054687-.058594-.105469-.09375-.15625 0 0 .03125-.003906.03125 0s-.136719.050781.1875-.125c2.429688-1.320312 4.289063-3.355469 5.46875-5.8125.109375-.230469.203125-.394531.28125-.46875s.125-.125.4375-.125h1.625c1.4375 0 2.625-1.1875 2.625-2.625v-4.875c0-1.4375-1.183594-2.625-2.625-2.625h-1.625c-.253906 0-.320312-.019531-.34375-.03125-.496094-2.878906-2.4375-6.484375-6.71875-8.3125.050781-2.058594.503906-3.6875 1.5-6.375.128906-.320312.085938-.6875-.117187-.964844-.203125-.28125-.539063-.4375-.882813-.410156zm-1.5625 2.8125c-.605469 1.882813-1.035156 3.574219-1 5.53125.003906.425781.28125.804688.6875.9375 4.183594 1.460938 5.726563 4.714844 6.125 7.21875.152344.953125 1.167969 1.59375 2.3125 1.59375h1.625c.351563 0 .625.269531.625.625v4.875c0 .351563-.269531.625-.625.625h-1.625c-.734375 0-1.398437.273438-1.8125.65625-.414062.382813-.597656.804688-.71875 1.0625-1.015625 2.113281-2.539062 3.789063-4.59375 4.90625-.800781.433594-1.230469 1.238281-1.25 1.84375-.015625.519531.160156.796875.21875.90625h-.03125l.0625.15625.4375 1.21875c.144531.375-.023437.792969-.40625.9375l-3.21875 1.21875c-.382812.144531-.796875-.058594-.9375-.4375 0-.011719 0-.019531 0-.03125 0 0-.390625-.894531-.6875-1.78125-.148437-.433594-.359375-.917969-.84375-1.21875s-.960937-.277344-1.40625-.25c-.890625.058594-2.039062.28125-4.3125.28125-2.144531 0-3.203125-.34375-4.0625-.5-.429687-.078125-.957031-.148437-1.5.15625-.542969.304688-.746094.800781-.9375 1.3125-.34375.921875-.78125 2.03125-.78125 2.03125-.144531.378906-.558594.582031-.9375.4375l-3.21875-1.21875c-.378906-.144531-.550781-.558594-.40625-.9375.015625-.042969.5625-1.382812.90625-2.4375.230469-.710937.132813-1.429687-.15625-1.90625-.289062-.476562-.675781-.730469-.78125-.8125-2.023437-1.617187-4.570312-4.492187-4.71875-8.0625-.210937-5.066406 1.527344-8.597656 4.25-10.71875 3.15625-2.457031 7.0625-4.03125 12.34375-4.03125 2.015625 0 3.921875.246094 5.71875.6875.472656.117188.957031-.121094 1.15625-.5625 1.121094-2.472656 2.78125-3.566406 4.5-4.3125zm.84375 13.34375c-1.058594 0-1.90625.851563-1.90625 1.90625 0 1.058594.847656 1.9375 1.90625 1.9375 1.054688 0 1.90625-.882812 1.90625-1.9375 0-1.054687-.851562-1.90625-1.90625-1.90625z"/></svg>

<svg xmlns="http://www.w3.org/2000/svg" viewBox="0 0 50 50" width="50" height="50" fill="#666"><path d="M 18.5 2.5625 C 14.367188 2.5625 11 5.933594 11 10.0625 C 11 11.222656 11.273438 12.335938 11.75 13.3125 L 13.53125 12.4375 C 13.183594 11.726563 13 10.917969 13 10.0625 C 13 7.011719 15.445313 4.5625 18.5 4.5625 C 21.546875 4.5625 24 7.011719 24 10.0625 L 26 10.0625 C 26 5.929688 22.628906 2.5625 18.5 2.5625 Z M 37.1875 6.9375 C 37.144531 6.945313 37.101563 6.957031 37.0625 6.96875 C 37.042969 6.976563 37.019531 6.988281 37 7 C 34.464844 7.636719 31.5625 9.15625 29.71875 12.59375 C 27.964844 12.21875 26.171875 11.9375 24.25 11.9375 C 18.5625 11.9375 14.152344 13.707031 10.6875 16.40625 C 8.917969 17.78125 7.53125 19.671875 6.65625 22 C 6.347656 21.894531 5.9375 21.722656 5.46875 21.40625 C 4.683594 20.871094 4 20.136719 4 18.78125 C 4 17.703125 4.503906 16.800781 5.34375 16.4375 C 5.8125 16.265625 6.082031 15.78125 5.980469 15.292969 C 5.878906 14.804688 5.433594 14.46875 4.9375 14.5 C 4.808594 14.507813 4.679688 14.539063 4.5625 14.59375 C 2.902344 15.308594 2 17.03125 2 18.78125 C 2 20.875 3.21875 22.296875 4.34375 23.0625 C 5.039063 23.535156 5.632813 23.769531 6.0625 23.90625 C 5.722656 25.386719 5.582031 27.027344 5.65625 28.78125 C 5.84375 33.234375 8.859375 36.5 11.125 38.3125 C 11.136719 38.3125 11.144531 38.3125 11.15625 38.3125 C 11.359375 38.472656 11.421875 38.566406 11.4375 38.59375 C 11.453125 38.621094 11.5 38.558594 11.40625 38.84375 C 11.105469 39.765625 10.53125 41.15625 10.53125 41.15625 C 10.53125 41.167969 10.53125 41.175781 10.53125 41.1875 C 10 42.582031 10.703125 44.15625 12.09375 44.6875 C 12.09375 44.699219 12.09375 44.707031 12.09375 44.71875 L 15.3125 45.90625 C 16.707031 46.4375 18.3125 45.738281 18.84375 44.34375 C 18.84375 44.34375 19.242188 43.21875 19.59375 42.28125 C 19.648438 42.140625 19.6875 42.105469 19.71875 42.0625 C 19.757813 42.066406 19.761719 42.078125 19.84375 42.09375 C 20.480469 42.210938 21.894531 42.625 24.25 42.625 C 26.652344 42.625 28.050781 42.382813 28.6875 42.34375 C 28.8125 42.335938 28.863281 42.34375 28.90625 42.34375 C 28.921875 42.371094 28.917969 42.394531 28.9375 42.4375 C 28.941406 42.453125 28.933594 42.453125 28.9375 42.46875 C 29.257813 43.425781 29.644531 44.316406 29.65625 44.34375 C 29.660156 44.359375 29.679688 44.359375 29.6875 44.375 C 30.230469 45.742188 31.777344 46.429688 33.15625 45.90625 L 36.375 44.71875 C 36.375 44.707031 36.375 44.699219 36.375 44.6875 C 37.769531 44.160156 38.472656 42.582031 37.9375 41.1875 L 37.4375 39.84375 C 37.410156 39.789063 37.378906 39.738281 37.34375 39.6875 C 37.34375 39.6875 37.375 39.683594 37.375 39.6875 C 37.375 39.691406 37.238281 39.738281 37.5625 39.5625 C 39.992188 38.242188 41.851563 36.207031 43.03125 33.75 C 43.140625 33.519531 43.234375 33.355469 43.3125 33.28125 C 43.390625 33.207031 43.4375 33.15625 43.75 33.15625 L 45.375 33.15625 C 46.8125 33.15625 48 31.96875 48 30.53125 L 48 25.65625 C 48 24.21875 46.816406 23.03125 45.375 23.03125 L 43.75 23.03125 C 43.496094 23.03125 43.429688 23.011719 43.40625 23 C 42.910156 20.121094 40.96875 16.515625 36.6875 14.6875 C 36.738281 12.628906 37.191406 11 38.1875 8.3125 C 38.316406 7.992188 38.273438 7.625 38.070313 7.347656 C 37.867188 7.066406 37.53125 6.910156 37.1875 6.9375 Z M 35.625 9.75 C 35.019531 11.632813 34.589844 13.324219 34.625 15.28125 C 34.628906 15.707031 34.90625 16.085938 35.3125 16.21875 C 39.496094 17.679688 41.039063 20.933594 41.4375 23.4375 C 41.589844 24.390625 42.605469 25.03125 43.75 25.03125 L 45.375 25.03125 C 45.726563 25.03125 46 25.300781 46 25.65625 L 46 30.53125 C 46 30.882813 45.730469 31.15625 45.375 31.15625 L 43.75 31.15625 C 43.015625 31.15625 42.351563 31.429688 41.9375 31.8125 C 41.523438 32.195313 41.339844 32.617188 41.21875 32.875 C 40.203125 34.988281 38.679688 36.664063 36.625 37.78125 C 35.824219 38.214844 35.394531 39.019531 35.375 39.625 C 35.359375 40.144531 35.535156 40.421875 35.59375 40.53125 L 35.5625 40.53125 L 35.625 40.6875 L 36.0625 41.90625 C 36.207031 42.28125 36.039063 42.699219 35.65625 42.84375 L 32.4375 44.0625 C 32.054688 44.207031 31.640625 44.003906 31.5 43.625 C 31.5 43.613281 31.5 43.605469 31.5 43.59375 C 31.5 43.59375 31.109375 42.699219 30.8125 41.8125 C 30.664063 41.378906 30.453125 40.894531 29.96875 40.59375 C 29.484375 40.292969 29.007813 40.316406 28.5625 40.34375 C 27.671875 40.402344 26.523438 40.625 24.25 40.625 C 22.105469 40.625 21.046875 40.28125 20.1875 40.125 C 19.757813 40.046875 19.230469 39.976563 18.6875 40.28125 C 18.144531 40.585938 17.941406 41.082031 17.75 41.59375 C 17.40625 42.515625 16.96875 43.625 16.96875 43.625 C 16.824219 44.003906 16.410156 44.207031 16.03125 44.0625 L 12.8125 42.84375 C 12.433594 42.699219 12.261719 42.285156 12.40625 41.90625 C 12.421875 41.863281 12.96875 40.523438 13.3125 39.46875 C 13.542969 38.757813 13.445313 38.039063 13.15625 37.5625 C 12.867188 37.085938 12.480469 36.832031 12.375 36.75 C 10.351563 35.132813 7.804688 32.257813 7.65625 28.6875 C 7.445313 23.621094 9.183594 20.089844 11.90625 17.96875 C 15.0625 15.511719 18.96875 13.9375 24.25 13.9375 C 26.265625 13.9375 28.171875 14.183594 29.96875 14.625 C 30.441406 14.742188 30.925781 14.503906 31.125 14.0625 C 32.246094 11.589844 33.90625 10.496094 35.625 9.75 Z M 36.46875 23.09375 C 35.410156 23.09375 34.5625 23.945313 34.5625 25 C 34.5625 26.058594 35.410156 26.9375 36.46875 26.9375 C 37.523438 26.9375 38.375 26.054688 38.375 25 C 38.375 23.945313 37.523438 23.09375 36.46875 23.09375 Z"/></svg>
